Numix-Light/16/status/indicator-keyboard-Ro-5.svg

<?xml version="1.0" encoding="UTF-8" standalone="no"?>
<svg
   xmlns:dc="http://purl.org/dc/elements/1.1/"
   xmlns:cc="http://creativecommons.org/ns#"
   xmlns:rdf="http://www.w3.org/1999/02/22-rdf-syntax-ns#"
   xmlns:svg="http://www.w3.org/2000/svg"
   xmlns="http://www.w3.org/2000/svg"
   xmlns:sodipodi="http://sodipodi.sourceforge.net/DTD/sodipodi-0.dtd"
   xmlns:inkscape="http://www.inkscape.org/namespaces/inkscape"
   viewBox="0 0 16 16"
   id="svg2"
   version="1.1"
   inkscape:version="0.91 r13725"
   sodipodi:docname="indicator-keyboard-Ro-5.svg">
  <metadata
     id="metadata14">
    <rdf:RDF>
      <cc:Work
         rdf:about="">
        <dc:format>image/svg+xml</dc:format>
        <dc:type
           rdf:resource="http://purl.org/dc/dcmitype/StillImage" />
      </cc:Work>
    </rdf:RDF>
  </metadata>
  <defs
     id="defs12" />
  <sodipodi:namedview
     pagecolor="#ffffff"
     bordercolor="#666666"
     borderopacity="1"
     objecttolerance="10"
     gridtolerance="10"
     guidetolerance="10"
     inkscape:pageopacity="0"
     inkscape:pageshadow="2"
     inkscape:window-width="640"
     inkscape:window-height="480"
     id="namedview10"
     showgrid="false"
     inkscape:zoom="14.75"
     inkscape:cx="8"
     inkscape:cy="8"
     inkscape:window-x="65"
     inkscape:window-y="24"
     inkscape:window-maximized="0"
     inkscape:current-layer="svg2" />
  <path
     style="fill:#353535;fill-opacity:1"
     d="M 1.5996094 0 C 0.71320937 2.9605947e-16 0 0.71320937 0 1.5996094 L 0 14.400391 C 2.9605947e-16 15.286791 0.71320937 16 1.5996094 16 L 14.400391 16 C 15.286791 16 16 15.286791 16 14.400391 L 16 1.5996094 C 16 0.71320937 15.286791 0 14.400391 0 L 1.5996094 0 z M 3.1621094 4.8046875 C 4.0201094 4.8046875 4.6656563 4.9670156 5.0976562 5.2910156 C 5.5356562 5.6150156 5.7539062 6.0944688 5.7539062 6.7304688 C 5.7539062 7.1984687 5.6307656 7.5678906 5.3847656 7.8378906 C 5.1387656 8.1078906 4.8141094 8.3038281 4.4121094 8.4238281 C 4.5081094 8.5438281 4.63125 8.7042031 4.78125 8.9082031 C 4.93725 9.1122031 5.0958125 9.3379844 5.2578125 9.5839844 C 5.4198125 9.8239844 5.5803281 10.075844 5.7363281 10.339844 C 5.8923281 10.603844 6.0228594 10.855703 6.1308594 11.095703 L 5.4746094 11.095703 C 5.3486094 10.855703 5.2105469 10.616953 5.0605469 10.376953 C 4.9165469 10.136953 4.7673281 9.9055939 4.6113281 9.6835938 C 4.4613281 9.4555937 4.3139219 9.2447344 4.1699219 9.0527344 L 3.7910156 8.5488281 C 3.5990156 8.5668281 3.4068438 8.5761719 3.2148438 8.5761719 L 2.2070312 8.5761719 L 2.2070312 11.095703 L 1.5957031 11.095703 L 1.5957031 4.9765625 C 1.8117031 4.9165625 2.0635625 4.8736094 2.3515625 4.8496094 C 2.6455625 4.8196094 2.9161094 4.8046875 3.1621094 4.8046875 z M 3.234375 5.3359375 C 3.006375 5.3359375 2.8048594 5.3452813 2.6308594 5.3632812 C 2.4628594 5.3752812 2.3210313 5.3864375 2.2070312 5.3984375 L 2.2070312 8.0546875 L 3.0546875 8.0546875 C 3.3366875 8.0546875 3.6034688 8.0415781 3.8554688 8.0175781 C 4.1074687 7.9875781 4.3257188 7.9278906 4.5117188 7.8378906 C 4.6977187 7.7418906 4.845125 7.6075937 4.953125 7.4335938 C 5.061125 7.2595937 5.1152344 7.0226562 5.1152344 6.7226562 C 5.1152344 6.4466563 5.061125 6.2171094 4.953125 6.0371094 C 4.845125 5.8571094 4.7032969 5.7172344 4.5292969 5.6152344 C 4.3552969 5.5072344 4.1537812 5.4344375 3.9257812 5.3984375 C 3.7037812 5.3564375 3.474375 5.3359375 3.234375 5.3359375 z M 8.9589844 6.3359375 C 9.2709844 6.3359375 9.5564531 6.395625 9.8144531 6.515625 C 10.072453 6.629625 10.294469 6.7937656 10.480469 7.0097656 C 10.672469 7.2197656 10.819875 7.4753906 10.921875 7.7753906 C 11.029875 8.0753906 11.083984 8.4074375 11.083984 8.7734375 C 11.083984 9.1394375 11.029875 9.4734375 10.921875 9.7734375 C 10.819875 10.073438 10.672469 10.327109 10.480469 10.537109 C 10.294469 10.747109 10.072453 10.913203 9.8144531 11.033203 C 9.5564531 11.147203 9.2709844 11.203125 8.9589844 11.203125 C 8.6469844 11.203125 8.3615156 11.147203 8.1035156 11.033203 C 7.8455156 10.913203 7.6216875 10.747109 7.4296875 10.537109 C 7.2436875 10.327109 7.0962812 10.073438 6.9882812 9.7734375 C 6.8862813 9.4734375 6.8359375 9.1394375 6.8359375 8.7734375 C 6.8359375 8.4074375 6.8862813 8.0753906 6.9882812 7.7753906 C 7.0962812 7.4753906 7.2436875 7.2197656 7.4296875 7.0097656 C 7.6216875 6.7937656 7.8455156 6.629625 8.1035156 6.515625 C 8.3615156 6.395625 8.6469844 6.3359375 8.9589844 6.3359375 z M 8.9589844 6.8652344 C 8.4969844 6.8652344 8.1313281 7.0406719 7.8613281 7.3886719 C 7.5913281 7.7306719 7.4570312 8.1914375 7.4570312 8.7734375 C 7.4570312 9.3554375 7.5913281 9.818156 7.8613281 10.160156 C 8.1313281 10.502156 8.4969844 10.673828 8.9589844 10.673828 C 9.4209844 10.673828 9.7866409 10.502156 10.056641 10.160156 C 10.326641 9.8181561 10.462891 9.3554375 10.462891 8.7734375 C 10.462891 8.1914375 10.326641 7.7306719 10.056641 7.3886719 C 9.7866409 7.0406719 9.4209844 6.8652344 8.9589844 6.8652344 z M 12.439453 8.8417969 L 14.263672 8.8417969 L 14.263672 9.1757812 L 12.771484 9.1757812 C 12.767618 9.2498812 12.76174 9.3458906 12.753906 9.4628906 C 12.746106 9.5798906 12.738269 9.6994188 12.730469 9.8242188 C 12.722669 9.9451188 12.712872 10.062681 12.701172 10.175781 C 12.689472 10.288881 12.679675 10.379012 12.671875 10.445312 C 12.972175 10.453112 13.232773 10.490341 13.451172 10.556641 C 13.669572 10.622941 13.847881 10.711119 13.988281 10.824219 C 14.128681 10.937319 14.232528 11.074475 14.298828 11.234375 C 14.369028 11.394275 14.404297 11.572578 14.404297 11.767578 C 14.404297 11.939178 14.374906 12.097894 14.316406 12.246094 C 14.261806 12.394294 14.175594 12.523613 14.058594 12.632812 C 13.941594 12.742012 13.794634 12.828225 13.615234 12.890625 C 13.435834 12.953025 13.222262 12.984375 12.976562 12.984375 C 12.851762 12.984375 12.7342 12.974578 12.625 12.955078 C 12.5197 12.939478 12.425644 12.919884 12.339844 12.896484 C 12.257944 12.873084 12.187406 12.849572 12.128906 12.826172 C 12.070406 12.802772 12.0273 12.783178 12 12.767578 L 12.099609 12.427734 C 12.123009 12.443334 12.162197 12.462928 12.216797 12.486328 C 12.275297 12.509728 12.341916 12.533241 12.416016 12.556641 C 12.494016 12.576141 12.578275 12.593775 12.671875 12.609375 C 12.769375 12.624975 12.871263 12.632812 12.976562 12.632812 C 13.171563 12.632812 13.334191 12.611259 13.462891 12.568359 C 13.595491 12.521559 13.699344 12.458859 13.777344 12.380859 C 13.855344 12.302859 13.910206 12.212728 13.941406 12.111328 C 13.976506 12.006028 13.994141 11.894337 13.994141 11.773438 C 13.994141 11.617437 13.968669 11.476362 13.917969 11.351562 C 13.867269 11.226762 13.779091 11.120956 13.650391 11.035156 C 13.521691 10.949356 13.347306 10.884697 13.128906 10.841797 C 12.910506 10.794997 12.634228 10.771484 12.298828 10.771484 C 12.322228 10.572584 12.341822 10.392316 12.357422 10.228516 C 12.373022 10.060816 12.386738 9.9001469 12.398438 9.7480469 C 12.410138 9.5920469 12.417975 9.4431281 12.421875 9.2988281 C 12.429675 9.1506281 12.435553 8.9977969 12.439453 8.8417969 z "
     id="path4" />
</svg>

<svg xmlns="http://www.w3.org/2000/svg" viewBox="0 0 16 16">
 <path d="m 1.6 0 c -0.886 0 -1.6 0.713 -1.6 1.6 l 0 12.801 c 0 0.886 0.713 1.6 1.6 1.6 l 12.801 0 c 0.886 0 1.6 -0.713 1.6 -1.6 l 0 -12.801 c 0 -0.886 -0.713 -1.6 -1.6 -1.6 l -12.801 0 z m 1.562 4.805 c 0.858 0 1.504 0.162 1.936 0.486 c 0.438 0.324 0.656 0.803 0.656 1.439 c 0 0.468 -0.123 0.837 -0.369 1.107 c -0.246 0.27 -0.571 0.466 -0.973 0.586 c 0.096 0.12 0.219 0.28 0.369 0.484 c 0.156 0.204 0.315 0.43 0.477 0.676 c 0.162 0.24 0.323 0.492 0.479 0.756 c 0.156 0.264 0.287 0.516 0.395 0.756 l -0.656 0 c -0.126 -0.24 -0.264 -0.479 -0.414 -0.719 c -0.144 -0.24 -0.293 -0.471 -0.449 -0.693 c -0.15 -0.228 -0.297 -0.439 -0.441 -0.631 l -0.379 -0.504 c -0.192 0.018 -0.384 0.027 -0.576 0.027 l -1.01 0 l 0 2.52 l -0.611 0 l 0 -6.119 c 0.216 -0.06 0.468 -0.103 0.756 -0.127 c 0.294 -0.03 0.565 -0.045 0.811 -0.045 z m 0.072 0.531 c -0.228 0 -0.43 0.009 -0.604 0.027 c -0.168 0.012 -0.31 0.023 -0.424 0.035 l 0 2.656 l 0.848 0 c 0.282 0 0.549 -0.013 0.801 -0.037 c 0.252 -0.03 0.47 -0.09 0.656 -0.18 c 0.186 -0.096 0.333 -0.23 0.441 -0.404 c 0.108 -0.174 0.162 -0.411 0.162 -0.711 c 0 -0.276 -0.054 -0.506 -0.162 -0.686 c -0.108 -0.18 -0.25 -0.32 -0.424 -0.422 c -0.174 -0.108 -0.376 -0.181 -0.604 -0.217 c -0.222 -0.042 -0.451 -0.063 -0.691 -0.063 z m 5.725 1 c 0.312 0 0.597 0.06 0.855 0.18 c 0.258 0.114 0.48 0.278 0.666 0.494 c 0.192 0.21 0.339 0.466 0.441 0.766 c 0.108 0.3 0.162 0.632 0.162 0.998 c 0 0.366 -0.054 0.7 -0.162 1 c -0.102 0.3 -0.249 0.554 -0.441 0.764 c -0.186 0.21 -0.408 0.376 -0.666 0.496 c -0.258 0.114 -0.543 0.17 -0.855 0.17 c -0.312 0 -0.597 -0.056 -0.855 -0.17 c -0.258 -0.12 -0.482 -0.286 -0.674 -0.496 c -0.186 -0.21 -0.333 -0.464 -0.441 -0.764 c -0.102 -0.3 -0.152 -0.634 -0.152 -1 c 0 -0.366 0.05 -0.698 0.152 -0.998 c 0.108 -0.3 0.255 -0.556 0.441 -0.766 c 0.192 -0.216 0.416 -0.38 0.674 -0.494 c 0.258 -0.12 0.543 -0.18 0.855 -0.18 z m 0 0.529 c -0.462 0 -0.828 0.175 -1.098 0.523 c -0.27 0.342 -0.404 0.803 -0.404 1.385 c 0 0.582 0.134 1.045 0.404 1.387 c 0.27 0.342 0.636 0.514 1.098 0.514 c 0.462 0 0.828 -0.172 1.098 -0.514 c 0.27 -0.342 0.406 -0.805 0.406 -1.387 c 0 -0.582 -0.136 -1.043 -0.406 -1.385 c -0.27 -0.348 -0.636 -0.523 -1.098 -0.523 z m 3.48 1.977 l 1.824 0 l 0 0.334 l -1.492 0 c -0.004 0.074 -0.01 0.17 -0.018 0.287 c -0.008 0.117 -0.016 0.237 -0.023 0.361 c -0.008 0.121 -0.018 0.238 -0.029 0.352 c -0.012 0.113 -0.021 0.203 -0.029 0.27 c 0.3 0.008 0.561 0.045 0.779 0.111 c 0.218 0.066 0.397 0.154 0.537 0.268 c 0.14 0.113 0.244 0.25 0.311 0.41 c 0.07 0.16 0.105 0.338 0.105 0.533 c 0 0.172 -0.029 0.33 -0.088 0.479 c -0.055 0.148 -0.141 0.278 -0.258 0.387 c -0.117 0.109 -0.264 0.195 -0.443 0.258 c -0.179 0.062 -0.393 0.094 -0.639 0.094 c -0.125 0 -0.242 -0.01 -0.352 -0.029 c -0.105 -0.016 -0.199 -0.035 -0.285 -0.059 c -0.082 -0.023 -0.152 -0.047 -0.211 -0.07 c -0.059 -0.023 -0.102 -0.043 -0.129 -0.059 l 0.1 -0.34 c 0.023 0.016 0.063 0.035 0.117 0.059 c 0.059 0.023 0.125 0.047 0.199 0.07 c 0.078 0.019 0.162 0.037 0.256 0.053 c 0.098 0.016 0.199 0.023 0.305 0.023 c 0.195 0 0.358 -0.022 0.486 -0.064 c 0.133 -0.047 0.236 -0.109 0.314 -0.188 c 0.078 -0.078 0.133 -0.168 0.164 -0.27 c 0.035 -0.105 0.053 -0.217 0.053 -0.338 c 0 -0.156 -0.025 -0.297 -0.076 -0.422 c -0.051 -0.125 -0.139 -0.231 -0.268 -0.316 c -0.129 -0.086 -0.303 -0.15 -0.521 -0.193 c -0.218 -0.047 -0.495 -0.07 -0.83 -0.07 c 0.023 -0.199 0.043 -0.379 0.059 -0.543 c 0.016 -0.168 0.029 -0.328 0.041 -0.48 c 0.012 -0.156 0.02 -0.305 0.023 -0.449 c 0.008 -0.148 0.014 -0.301 0.018 -0.457 z" style="fill:#353535;fill-opacity:1"/>
</svg>
